X:1223
T:Come, All Ye Fair Maidens
O:england
B:Joyce, P. W.; "Old Irish Folk Music and Songs"
W:Come, all ye fair maidens, take warning by me,
W:And never look up to the top of a tree;
W:For the leaves they will wither and the roots they will die;
W:And my love has forsak'n me, and sorry am I,
W:                      My dear, sorry am I.
R:song
L:1/8
M:6/8
K:G
"Mod."\
D|G>AG GAB|AGE E2 D|G>AG GBd|edB A2 B/A/|
G>AG GBd|edB Hc2 Bc|AGE EcB|AGA B2 G/E/|DB,D E2||


